X:1
T:Title
%%score { 1 | 2 }
L:1/8
M:3/4
K:D
V:1 treble nm="Grand Piano"
V:2 bass 
V:1
 z2 z[Q:1/4=85] F F[EG] | [FA]3 A GF | [CE]3 [DF] [EG][FA] | [Gc]3 [GB] [FA][CB] |[M:3/8] F3 | %5
 FF[EG] |[M:3/4] [FA]3 [FA] [FB][F=c] | B3 B cd | d3 [DF] [CE]>D |[M:3/8] D3 | AAB | %11
[M:3/4] F3 [Fd] [Fd][Ge] | [GB]3 [GB] [Gc][Fd] | [Gc]3 [EG] [EG][EA] |[M:3/8] [DF]3 | %15
 [FA][GB][Gc] |[M:3/4] [Fd]3 [Fd] [Ge][Fd] | B3 B cd | d3 [DF] [CE]>D |[M:3/8] D3 |] %20
V:2
 z2 z [D,A,D] [D,A,D][D,A,] | [D,D]3 [F,A,D] [E,A,D][D,A,D] | [A,,A,]3 [A,,A,] [A,,A,][A,,A,] | %3
 [A,,A,]3 [A,,A,] [A,,A,][A,,A,] |[M:3/8] [D,A,D]3 | [D,A,D][D,A,D][D,A,] | %6
[M:3/4] [D,D]3 [D,D] [D,D][D,D] | [G,DG]3 [^G,D=F] [G,CF][G,B,F] | %8
 [A,F]3[K:bass] [A,,A,] [A,,G,]>[D,F,] |[M:3/8] [D,F,]3 | [D,F,D][D,F,D][D,G,D] | %11
[M:3/4] [D,A,D]3 [D,A,] [D,A,][D,D] | [G,D]3 [G,D] [E,A,][D,A,] | [A,,A,]3 [A,,A,] [A,,A,][C,A,] | %14
[M:3/8] [D,A,]3 | [D,D][D,D][D,D] |[M:3/4] [D,A,]3 [D,A,] [D,A,][D,D] | %17
 [G,DG]3 [^G,D=F] [G,CF][G,B,F] | [A,F]3[K:bass] [A,,A,] [A,,G,]>[D,F,] |[M:3/8] [D,F,]3 |] %20

